X:453
T:Reel 453
M:4/4
K:Gmaj
L:1/8
dc|BGAG BGAF|G2Bd gedc|BGAG BGAG|FDEF G2dc|BGAG BGAF|G2Bd gedc|BGAG BGAG|FDEF G2|Bd|gfge fgaf|g2gf edef|gfge fgaf|bgef g2Bd|gfge fgaf|g2ge fgaf|bgaf gfed|egfa gedB|
